X:81
T:Hayden Fancy, The
R:polka
Z:id:hn-polka-81
M:2/4
L:1/8
K:D
A>B df|A>B d/f/e/d/|eB BA/B/|dB Bd|A>B df|A>B d/f/e/d/|eB cd|ed d2:|
af f/e/d/f/|af f>e|dB BA/B/|dB BA|af f/e/d/f/|af f>e|dB cd|ed d2:|
<end>
<start>
